Catalina-light/actions/16/document-open-recent.svg

<?xml version="1.0" encoding="UTF-8" standalone="no"?>
<!-- Created with Inkscape (http://www.inkscape.org/) -->

<svg
   xmlns:dc="http://purl.org/dc/elements/1.1/"
   xmlns:cc="http://creativecommons.org/ns#"
   xmlns:rdf="http://www.w3.org/1999/02/22-rdf-syntax-ns#"
   xmlns:svg="http://www.w3.org/2000/svg"
   xmlns="http://www.w3.org/2000/svg"
   xmlns:sodipodi="http://sodipodi.sourceforge.net/DTD/sodipodi-0.dtd"
   xmlns:inkscape="http://www.inkscape.org/namespaces/inkscape"
   id="svg7384"
   sodipodi:docname="document-open-recent.svg"
   version="1.1"
   inkscape:version="0.92.3 (2405546, 2018-03-11)"
   height="16"
   width="16">
  <metadata
     id="metadata90">
    <rdf:RDF>
      <cc:Work
         rdf:about="">
        <dc:format>image/svg+xml</dc:format>
        <dc:type
           rdf:resource="http://purl.org/dc/dcmitype/StillImage" />
        <dc:title>Gnome Symbolic Icon Theme</dc:title>
      </cc:Work>
    </rdf:RDF>
  </metadata>
  <sodipodi:namedview
     inkscape:cy="12.688201"
     pagecolor="#ffffff"
     borderopacity="1"
     showborder="true"
     inkscape:bbox-paths="false"
     guidetolerance="10"
     inkscape:window-width="1920"
     showguides="true"
     inkscape:object-nodes="true"
     inkscape:snap-bbox="true"
     inkscape:pageshadow="2"
     inkscape:guide-bbox="true"
     inkscape:snap-nodes="true"
     bordercolor="#666666"
     objecttolerance="10"
     id="namedview88"
     showgrid="true"
     inkscape:window-maximized="1"
     inkscape:window-x="0"
     inkscape:snap-global="true"
     inkscape:window-y="26"
     gridtolerance="10"
     inkscape:window-height="1028"
     inkscape:snap-to-guides="true"
     inkscape:current-layer="layer13"
     inkscape:zoom="8"
     inkscape:cx="-13.597111"
     inkscape:snap-grids="true"
     inkscape:pageopacity="1">
    <inkscape:grid
       spacingx="1"
       spacingy="1"
       id="grid4866"
       empspacing="2"
       enabled="true"
       type="xygrid"
       snapvisiblegridlinesonly="true"
       visible="true"
       originx="0"
       originy="0" />
    <inkscape:grid
       type="xygrid"
       id="grid823" />
    <sodipodi:guide
       position="11.867187,14.414062"
       orientation="1,0"
       id="guide8815"
       inkscape:locked="false" />
    <sodipodi:guide
       position="5.75,8"
       orientation="0,1"
       id="guide8838"
       inkscape:locked="false" />
    <sodipodi:guide
       position="5.75,8"
       orientation="1,0"
       id="guide8840"
       inkscape:locked="false" />
    <sodipodi:guide
       position="10.25,8"
       orientation="1,0"
       id="guide8842"
       inkscape:locked="false" />
    <sodipodi:guide
       position="10.5,7"
       orientation="1,0"
       id="guide8844"
       inkscape:locked="false" />
    <sodipodi:guide
       position="5.5,7"
       orientation="1,0"
       id="guide8846"
       inkscape:locked="false" />
    <sodipodi:guide
       position="7.25,11"
       orientation="1,0"
       id="guide8848"
       inkscape:locked="false" />
    <sodipodi:guide
       position="8.75,11"
       orientation="1,0"
       id="guide8850"
       inkscape:locked="false" />
    <sodipodi:guide
       position="7.5,5"
       orientation="1,0"
       id="guide8852"
       inkscape:locked="false" />
    <sodipodi:guide
       position="8.5,5"
       orientation="1,0"
       id="guide8854"
       inkscape:locked="false" />
    <sodipodi:guide
       position="8,4.75"
       orientation="0,1"
       id="guide8856"
       inkscape:locked="false" />
    <sodipodi:guide
       position="7.75,4.75"
       orientation="1,0"
       id="guide8858"
       inkscape:locked="false" />
    <sodipodi:guide
       position="8.25,4.75"
       orientation="1,0"
       id="guide8860"
       inkscape:locked="false" />
    <sodipodi:guide
       position="8,12"
       orientation="0,1"
       id="guide8862"
       inkscape:locked="false" />
    <sodipodi:guide
       position="11,7.5"
       orientation="0,1"
       id="guide8866"
       inkscape:locked="false" />
    <sodipodi:guide
       position="10.75,8"
       orientation="1,0"
       id="guide8868"
       inkscape:locked="false" />
    <sodipodi:guide
       position="5.25,8"
       orientation="1,0"
       id="guide8870"
       inkscape:locked="false" />
    <sodipodi:guide
       position="5,7.5"
       orientation="1,0"
       id="guide8872"
       inkscape:locked="false" />
    <sodipodi:guide
       position="4,6.515625"
       orientation="1,0"
       id="guide8983"
       inkscape:locked="false" />
    <sodipodi:guide
       position="5,6.5"
       orientation="0,1"
       id="guide8985"
       inkscape:locked="false" />
    <sodipodi:guide
       position="8.75,7"
       orientation="0,1"
       id="guide8989"
       inkscape:locked="false" />
    <sodipodi:guide
       position="8.75,6.7617188"
       orientation="0,1"
       id="guide8991"
       inkscape:locked="false" />
  </sodipodi:namedview>
  <title
     id="title9167">Gnome Symbolic Icon Theme</title>
  <defs
     id="defs7386" />
  <g
     inkscape:label="status"
     transform="translate(-442,-176)"
     inkscape:groupmode="layer"
     id="layer9"
     style="display:inline" />
  <g
     inkscape:label="devices"
     transform="translate(-442,-176)"
     inkscape:groupmode="layer"
     id="layer10" />
  <g
     inkscape:label="apps"
     transform="translate(-442,-176)"
     inkscape:groupmode="layer"
     id="layer11" />
  <g
     inkscape:label="actions"
     transform="translate(-442,-176)"
     inkscape:groupmode="layer"
     id="layer12" />
  <g
     inkscape:label="places"
     transform="translate(-442,-176)"
     inkscape:groupmode="layer"
     id="layer13">
    <path
       style="opacity:1;fill:#000007;fill-opacity:0.56470591;stroke:none;stroke-width:0.1;stroke-linecap:round;stroke-linejoin:round;stroke-miterlimit:4;stroke-dasharray:none;stroke-opacity:0.16847827"
       d="M 8 1 A 7 7 0 0 0 1 8 A 7 7 0 0 0 8 15 A 7 7 0 0 0 15 8 A 7 7 0 0 0 8 1 z M 7.96875 2.0039062 A 5.9643083 5.9643083 0 0 1 13.933594 7.96875 A 5.9643083 5.9643083 0 0 1 7.96875 13.933594 A 5.9643083 5.9643083 0 0 1 2.0039062 7.96875 A 5.9643083 5.9643083 0 0 1 7.96875 2.0039062 z "
       transform="translate(442,176)"
       id="path8810" />
    <path
       style="opacity:1;fill:#000007;fill-opacity:0.56470591;stroke:none;stroke-width:0.1;stroke-linecap:round;stroke-linejoin:round;stroke-miterlimit:4;stroke-dasharray:none;stroke-opacity:1"
       d="m 449.25,180 c 0,-1 1.5,-1 1.5,0 v 4 h -1.5 z"
       id="rect8831"
       inkscape:connector-curvature="0"
       sodipodi:nodetypes="ccccc" />
    <path
       sodipodi:nodetypes="cccccc"
       inkscape:connector-curvature="0"
       id="path8981"
       d="m 447,185.5 c -1,0 -1,-1.5 0,-1.5 h 3.75 v 1 c 0,0.23828 -0.25,0.5 -0.5,0.5 z"
       style="opacity:1;fill:#000007;fill-opacity:0.56470591;stroke:none;stroke-width:0.1;stroke-linecap:round;stroke-linejoin:round;stroke-miterlimit:4;stroke-dasharray:none;stroke-opacity:1" />
  </g>
  <g
     inkscape:label="mimetypes"
     transform="translate(-442,-176)"
     inkscape:groupmode="layer"
     id="layer14" />
  <g
     inkscape:label="emblems"
     transform="translate(-442,-176)"
     inkscape:groupmode="layer"
     id="layer15"
     style="display:inline" />
</svg>

<svg xmlns="http://www.w3.org/2000/svg" width="16" height="16" version="1.1">
<g fill="#000007" fill-opacity=".56471">
<path transform="translate(0 0)" d="m8 1a7 7 0 0 0-7 7 7 7 0 0 0 7 7 7 7 0 0 0 7-7 7 7 0 0 0-7-7zm-0.03125 1.0039a5.9643 5.9643 0 0 1 5.9648 5.9648 5.9643 5.9643 0 0 1-5.9648 5.9648 5.9643 5.9643 0 0 1-5.9648-5.9648 5.9643 5.9643 0 0 1 5.9648-5.9648z" />
<path d="m7.25 4c0-1 1.5-1 1.5 0v4h-1.5z" />
<path d="m5 9.5c-1 0-1-1.5 0-1.5h3.75v1c0 0.23828-0.25 0.5-0.5 0.5z" />
</g>
</svg>
